assets/icons/square-x-twitter.svg

<svg xmlns="http://www.w3.org/2000/svg" x="0px" y="0px" width="100" height="100" viewBox="0 0 50 50">
<path d="M 11 4 C 7.134 4 4 7.134 4 11 L 4 39 C 4 42.866 7.134 46 11 46 L 39 46 C 42.866 46 46 42.866 46 39 L 46 11 C 46 7.134 42.866 4 39 4 L 11 4 z M 13.085938 13 L 21.023438 13 L 26.660156 21.009766 L 33.5 13 L 36 13 L 27.789062 22.613281 L 37.914062 37 L 29.978516 37 L 23.4375 27.707031 L 15.5 37 L 13 37 L 22.308594 26.103516 L 13.085938 13 z M 16.914062 15 L 31.021484 35 L 34.085938 35 L 19.978516 15 L 16.914062 15 z"></path>
</svg>

<svg xmlns="http://www.w3.org/2000/svg" x="0px" y="0px" width="100" height="100" viewBox="0,0,256,256">
<g transform="translate(-40.96,-40.96) scale(1.32,1.32)"><g fill="#ffffff" fill-rule="nonzero" stroke="none" stroke-width="1" stroke-linecap="butt" stroke-linejoin="miter" stroke-miterlimit="10" stroke-dasharray="" stroke-dashoffset="0" font-family="none" font-weight="none" font-size="none" text-anchor="none" style="mix-blend-mode: normal"><path d="M31.0303,224.9697v-193.93939h193.93939v193.93939z" id="bgRectangle"></path></g><g fill="#000000" fill-rule="nonzero" stroke="none" stroke-width="1" stroke-linecap="butt" stroke-linejoin="miter" stroke-miterlimit="10" stroke-dasharray="" stroke-dashoffset="0" font-family="none" font-weight="none" font-size="none" text-anchor="none" style="mix-blend-mode: normal"><g transform="scale(5.12,5.12)"><path d="M11,4c-3.866,0 -7,3.134 -7,7v28c0,3.866 3.134,7 7,7h28c3.866,0 7,-3.134 7,-7v-28c0,-3.866 -3.134,-7 -7,-7zM13.08594,13h7.9375l5.63672,8.00977l6.83984,-8.00977h2.5l-8.21094,9.61328l10.125,14.38672h-7.93555l-6.54102,-9.29297l-7.9375,9.29297h-2.5l9.30859,-10.89648zM16.91406,15l14.10742,20h3.06445l-14.10742,-20z"></path></g></g></g>
</svg>
